src/16/actions/labplot-xy-plot-two-axes.svg

<svg xmlns="http://www.w3.org/2000/svg" width="16" height="16" viewBox="0 0 16 16">
 <defs>
  <style id="current-color-scheme" type="text/css">
   .ColorScheme-Text { color:#5d656b; } .ColorScheme-Highlight { color:#5294e2; }
  </style>
 </defs>
 <path style="fill:currentColor" class="ColorScheme-Text" d="M 1 0 L 1 14 L 0 14 L 0 15 L 1 15 L 1 16 L 2 16 L 2 15 L 16 15 L 16 14 L 15.15625 14 L 14.96875 13.8125 L 14.125 13 L 12.84375 11.6875 L 12.125 11 L 10 13.09375 L 8.6875 11.8125 L 7.875 11 L 5.875 9 L 2 9 L 2 7 L 5.875 7 L 7.875 5 L 8.6875 4.15625 L 10 2.875 L 12.125 5 L 14.125 3 L 14.96875 2.15625 L 16 1.125 L 16 0.90625 L 15.78125 0.90625 L 15.28125 0.4375 L 14.25 1.46875 L 13.4375 2.28125 L 12.125 3.59375 L 10 1.46875 L 8.46875 3 L 8 3.46875 L 7.15625 4.28125 L 5.46875 6 L 2 6 L 2 0 L 1 0 z M 2 10 L 5.46875 10 L 7.15625 11.6875 L 8 12.53125 L 8.46875 13 L 9.46875 14 L 2 14 L 2 10 z M 12.125 12.40625 L 13.4375 13.6875 L 13.732422 14 L 10.53125 14 L 12.125 12.40625 z"/>
</svg>

<svg xmlns="http://www.w3.org/2000/svg" width="16" height="16"><defs><style id="current-color-scheme" type="text/css"></style></defs><path d="M1 0v14H0v1h1v1h1v-1h14v-1h-.844l-.187-.188-.844-.812-1.281-1.313-.719-.687L10 13.094l-1.313-1.281L7.875 11l-2-2H2V7h3.875l2-2 .813-.844L10 2.875 12.125 5l2-2 .844-.844L16 1.125V.906h-.219l-.5-.469L14.25 1.47l-.813.812-1.312 1.313L10 1.469 8.469 3 8 3.469l-.844.812L5.47 6H2V0H1zm1 10h3.469l1.687 1.688.844.843.469.469 1 1H2v-4zm10.125 2.406l1.313 1.281.294.313h-3.2l1.593-1.594z" fill="currentColor" color="#5d656b"/></svg>
